X:43
T:Britons Strike Home. WCl.43
M:3/4
L:1/4
Q:3/4=60
S:William Clarke MS,Lincoln,1770.
R:.Air
O:Lincoln
A:England
N:Good setting...
Z:vmp.Barry Callaghan
W:No words given in MS
K:D
dde|e3:|!
|:f3|ffg|fga|agf|!
a3|!
efg|fga|bag|fga|(g/2f/2) e>d|d3:|

